src/actions/22/view-media-playlist.svg

<svg xmlns="http://www.w3.org/2000/svg" viewBox="0 0 22 22">
  <defs id="defs3051">
    <style type="text/css" id="current-color-scheme">
      .ColorScheme-Text {
        color:#363636;
      }
      </style>
  </defs>
 <path 
    style="fill:currentColor;fill-opacity:1;stroke:none" 
    d="M 4.5 3 C 3.671579 3 3.000008 3.67157 3 4.5 C 3.000008 5.32843 3.671579 6 4.5 6 C 5.328421 6 5.999992 5.32843 6 4.5 C 5.999992 3.67157 5.328421 3 4.5 3 z M 7 4 L 7 5 L 8 5 L 8 4 L 7 4 z M 9 4 L 9 5 L 19 5 L 19 4 L 9 4 z M 9 6 L 9 7 L 12 7 L 12 6 L 9 6 z M 4.5 9 C 3.671573 8.9999999 3 9.671572 3 10.5 C 3 11.328428 3.671573 12.000001 4.5 12 C 5.328427 12 6 11.328428 6 10.5 C 6 9.671572 5.328427 8.999999 4.5 9 z M 7 10 L 7 11 L 8 11 L 8 10 L 7 10 z M 9 10 L 9 11 L 19 11 L 19 10 L 9 10 z M 9 12 L 9 13 L 13 13 L 13 12 L 9 12 z M 4.5 15 C 3.671573 15 3 15.671572 3 16.5 C 3 17.328428 3.671573 18.000001 4.5 18 C 5.328427 18 6 17.328428 6 16.5 C 6 15.671572 5.328427 14.999999 4.5 15 z M 7 16 L 7 17 L 8 17 L 8 16 L 7 16 z M 9 16 L 9 17 L 19 17 L 19 16 L 9 16 z M 9 18 L 9 19 L 16 19 L 16 18 L 9 18 z "
	class="ColorScheme-Text"
    />  
</svg>

<svg xmlns="http://www.w3.org/2000/svg" viewBox="0 0 22 22">
    <path d="M4.5 3a1.5 1.5 0 1 0 0 3 1.5 1.5 0 0 0 0-3zM7 4v1h1V4H7zm2 0v1h10V4H9zm0 2v1h3V6H9zM4.5 9a1.5 1.5 0 1 0 0 3 1.5 1.5 0 0 0 0-3zM7 10v1h1v-1H7zm2 0v1h10v-1H9zm0 2v1h4v-1H9zm-4.5 3a1.5 1.5 0 1 0 0 3 1.5 1.5 0 0 0 0-3zM7 16v1h1v-1H7zm2 0v1h10v-1H9zm0 2v1h7v-1H9z" style="fill:currentColor;fill-opacity:1;stroke:none;color:#050505;opacity:.7"/>
</svg>
